X: 14
T:Boys of Bluehill
M:4/4
L:1/8
R:Hornpipe
Z:Often followed by Harvest Home as a medley
K:D
FA|:"D"BAFA D2FA|"Bm"BA (3Bcd "A"e2de|"D"faaf "Em"egfe|"D"dfed "Bm"B2dA|
"D"BAFA D2FA|!
"Bm"BA (3Bcd "A"e2de|"D"faaf "Em"egfe|[1"D"d2 dc  d2FA:|[2"D"d2 dc d2 fg
||!
"D"afdf a2gf|"G"efga b2ag|"D"faaf "Em"egfe|"D"dfed "Bm"B2dA|!
"D"BAFA D2FA|"Bm"BA (3Bcd "A"e2de|"D"faaf "Em"egfe|[1"D
"d2dc d2 fg:|[2"D"d2 dc d2 d2|]
